src/categories-icons-sprite/categories/svg-cat-child-food.svg

<svg width="30" height="32" viewBox="0 0 30 32" fill="none" xmlns="http://www.w3.org/2000/svg">
<path class="p-CFCFCF" d="M25.4909 31.4572C24.3336 31.4572 23.433 30.4514 23.5609 29.3012L23.9426 25.3753C24.2508 22.207 24.2284 19.0151 23.8774 15.8514L23.3213 10.8474H27.6602L27.1041 15.8514C26.7528 19.0151 26.7308 22.2067 27.0389 25.375L27.4207 29.3009C27.5485 30.4514 26.6482 31.4572 25.4909 31.4572Z" fill="#58ADE5"/>
<path class="p-E4E4E4" d="M29.8302 6.50858C29.8302 3.21332 27.8875 0.54248 25.4913 0.54248C23.0948 0.54248 21.1523 3.21332 21.1523 6.50858C21.1523 9.80353 23.0948 12.4744 25.4913 12.4744C27.8875 12.4744 29.8302 9.80353 29.8302 6.50858Z" fill="#B9DFFC"/>
<path class="p-9AF43B" d="M24.5523 3.08398C24.0393 3.51568 23.6377 4.29092 23.4453 5.23965L24.5523 3.08398Z" fill="#9AF43B"/>
<path class="p-white" d="M24.2029 2.66891C23.5552 3.2207 23.1269 4.09743 22.9134 5.13182C22.8535 5.4254 23.0431 5.71123 23.337 5.77113C23.6306 5.83103 23.9167 5.6414 23.9766 5.34782C24.1473 4.48474 24.5222 3.81036 24.9009 3.49877C25.1299 3.30605 25.1594 2.96405 24.9666 2.7347C24.7739 2.50567 24.4319 2.4768 24.2029 2.66953V2.66891Z" fill="white"/>
<path class="p-FFE6CE" d="M14.2522 30.915H4.72981C2.41679 30.915 0.541992 29.0399 0.541992 26.7269V13.9506C0.541992 11.6373 2.41679 9.76245 4.72981 9.76245H14.2522C16.5652 9.76245 18.4403 11.6373 18.4403 13.9506V26.7269C18.44 29.0399 16.5652 30.915 14.2522 30.915Z" fill="#B9DFFC"/>
<path class="p-white" d="M0.541992 13.5593H18.44V27.1184H0.541992V13.5593Z" fill="white"/>
<path class="p-54596E" d="M6.55563 22.0734C7.19588 22.8558 8.26564 23.3182 9.46234 23.3213C10.6466 23.3185 11.7071 22.8648 12.3498 22.0967C12.5407 21.8658 12.5087 21.5241 12.2778 21.3329C12.0472 21.1418 11.7055 21.174 11.5143 21.4049C11.1339 21.8717 10.3645 22.2398 9.46234 22.2373C8.55054 22.2404 7.7753 21.8636 7.39853 21.391C7.20984 21.1576 6.86815 21.1222 6.63539 21.3109C6.40263 21.4993 6.36694 21.841 6.55594 22.074L6.55563 22.0734Z" fill="#4D98CB"/>
<path class="p-54596E" d="M5.9662 18.9831C5.9662 19.5821 5.4805 20.0678 4.88154 20.0678C4.28226 20.0678 3.79688 19.5821 3.79688 18.9831C3.79688 18.3841 4.28226 17.8984 4.88154 17.8984C5.4805 17.8984 5.9662 18.3841 5.9662 18.9831Z" fill="#4D98CB"/>
<path class="p-FF927D" d="M4.33827 21.6945C4.33827 22.2935 3.85257 22.7792 3.25361 22.7792C2.65433 22.7792 2.16895 22.2935 2.16895 21.6945C2.16895 21.0956 2.65433 20.6099 3.25361 20.6099C3.85257 20.6099 4.33827 21.0956 4.33827 21.6945Z" fill="#58ADE5"/>
<path class="p-FF927D" d="M16.8132 21.6945C16.8132 22.2935 16.3275 22.7792 15.7282 22.7792C15.1292 22.7792 14.6436 22.2935 14.6436 21.6945C14.6436 21.0956 15.1292 20.6099 15.7282 20.6099C16.3275 20.6099 16.8132 21.0956 16.8132 21.6945Z" fill="#58ADE5"/>
<path class="p-54596E" d="M15.1862 18.9829C15.1862 19.5818 14.7005 20.0675 14.1013 20.0675C13.5023 20.0675 13.0166 19.5818 13.0166 18.9829C13.0166 18.3839 13.5023 17.8982 14.1013 17.8982C14.7005 17.8982 15.1862 18.3839 15.1862 18.9829Z" fill="#4D98CB"/>
<path class="p-FFE6CE" d="M3.25488 6.50854H15.7293V10.3049H3.25488V6.50854Z" fill="#B9DFFC"/>
<path class="p-FF927D" d="M2.16895 4.33887H16.8129V6.5085H2.16895V4.33887Z" fill="#58ADE5"/>
<path class="p-FFE6CE" d="M15.7293 4.339H3.25488C3.25488 3.14106 4.22627 2.16968 5.4242 2.16968H13.5599C14.7579 2.16968 15.7293 3.14106 15.7293 4.339Z" fill="#B9DFFC"/>
<path class="p-54596E" fill-rule="evenodd" clip-rule="evenodd" d="M9.33203 30.915V9.76245H14.2516C16.5646 9.76245 18.4397 11.6373 18.4397 13.9506V26.7269C18.4394 29.0399 16.5646 30.915 14.2516 30.915H9.33203Z" fill="#54596E" fill-opacity="0.15"/>
<path class="p-54596E" fill-rule="evenodd" clip-rule="evenodd" d="M9.33203 9.7627V6.50854H15.7275V10.0271C15.7275 10.0271 15.3286 9.88407 15.051 9.83203C14.7734 9.77999 14.336 9.7627 14.336 9.7627H9.33203Z" fill="#54596E" fill-opacity="0.15"/>
<path class="p-54596E" fill-rule="evenodd" clip-rule="evenodd" d="M9.33203 6.5085V4.33887H16.8128V6.5085H9.33203Z" fill="#54596E" fill-opacity="0.15"/>
<path class="p-54596E" fill-rule="evenodd" clip-rule="evenodd" d="M9.33203 4.339V2.16968H13.5582C14.7561 2.16968 15.7275 3.14106 15.7275 4.339H9.33203Z" fill="#54596E" fill-opacity="0.15"/>
</svg>

<svg width="30" height="32" fill="none" xmlns="http://www.w3.org/2000/svg"><path class="p-CFCFCF" d="M25.49 31.457a1.942 1.942 0 01-1.93-2.156l.383-3.926a45.99 45.99 0 00-.066-9.524l-.556-5.004h4.34l-.557 5.004a45.974 45.974 0 00-.065 9.524l.382 3.926a1.942 1.942 0 01-1.93 2.156z" fill="#58ADE5"/><path class="p-E4E4E4" d="M29.83 6.509c0-3.296-1.942-5.967-4.339-5.967-2.396 0-4.339 2.671-4.339 5.967 0 3.295 1.943 5.965 4.34 5.965 2.395 0 4.338-2.67 4.338-5.965z" fill="#B9DFFC"/><path class="p-9AF43B" d="M24.552 3.084c-.513.432-.914 1.207-1.107 2.156l1.107-2.156z" fill="#9AF43B"/><path class="p-white" d="M24.203 2.669c-.648.552-1.076 1.428-1.29 2.463a.542.542 0 101.064.216c.17-.863.545-1.538.924-1.85a.542.542 0 00-.698-.828v-.001z" fill="#fff"/><path class="p-FFE6CE" d="M14.252 30.915H4.73a4.188 4.188 0 01-4.188-4.188V13.95A4.188 4.188 0 014.73 9.762h9.522a4.188 4.188 0 014.188 4.189v12.776a4.188 4.188 0 01-4.188 4.188z" fill="#B9DFFC"/><path class="p-white" d="M.542 13.56H18.44v13.558H.542V13.56z" fill="#fff"/><path class="p-54596E" d="M6.556 22.073c.64.783 1.71 1.245 2.906 1.248 1.185-.003 2.245-.456 2.888-1.224a.543.543 0 00-.836-.692c-.38.467-1.15.835-2.052.832-.911.003-1.687-.373-2.063-.846a.542.542 0 10-.843.683zM5.966 18.983a1.085 1.085 0 11-2.17 0 1.085 1.085 0 012.17 0z" fill="#4D98CB"/><path class="p-FF927D" d="M4.338 21.695a1.085 1.085 0 11-2.17 0 1.085 1.085 0 012.17 0zM16.813 21.695a1.085 1.085 0 11-2.17 0 1.085 1.085 0 012.17 0z" fill="#58ADE5"/><path class="p-54596E" d="M15.186 18.983a1.085 1.085 0 11-2.17 0 1.085 1.085 0 012.17 0z" fill="#4D98CB"/><path class="p-FFE6CE" d="M3.255 6.509h12.474v3.796H3.255V6.509z" fill="#B9DFFC"/><path class="p-FF927D" d="M2.169 4.339h14.644v2.17H2.169v-2.17z" fill="#58ADE5"/><path class="p-FFE6CE" d="M15.73 4.339H3.254a2.17 2.17 0 012.17-2.17h8.135a2.17 2.17 0 012.17 2.17z" fill="#B9DFFC"/><path class="p-54596E" fill-rule="evenodd" clip-rule="evenodd" d="M9.332 30.915V9.762h4.92a4.188 4.188 0 014.188 4.189v12.776a4.188 4.188 0 01-4.188 4.188h-4.92z" fill="#54596E" fill-opacity=".15"/><path class="p-54596E" fill-rule="evenodd" clip-rule="evenodd" d="M9.332 9.763V6.509h6.395v3.518s-.398-.143-.676-.195c-.278-.052-.715-.07-.715-.07H9.332zM9.332 6.508v-2.17h7.48v2.17h-7.48z" fill="#54596E" fill-opacity=".15"/><path class="p-54596E" fill-rule="evenodd" clip-rule="evenodd" d="M9.332 4.339v-2.17h4.226a2.17 2.17 0 012.17 2.17H9.331z" fill="#54596E" fill-opacity=".15"/></svg>
